X:33
T:Cumberland Reel. JBu.33
O:England,South Yorkshire
S:Joshua Burnett’s MS,c1835,S.Yorkshire
M:C|
L:1/8
Q:1/2=80
R:reel
N:No Key Sig in MS
Z:vmp.R.Greig.2011
K:Bb
B2bg fdcB|AFcF dFcF|B2bg fdcB|FBAc|dBB2:|
|:BGFE DEFD|ECCc AFGA|BGFE DEFD|B,BAc dBB2:|

